z-union/img/logo.svg

<svg width="205" height="46" viewBox="0 0 205 46" fill="none" xmlns="http://www.w3.org/2000/svg">
<path d="M80.32 16.053L69.18 32.703H80.23V35.563H64V35.153L75.31 18.423H64.62V15.603H80.32V16.053Z" fill="#232322"/>
<path d="M119.723 15.603V30.223C119.723 33.163 120.013 33.573 122.083 33.373L122.123 35.613C119.013 36.153 116.533 35.943 116.743 32.463C115.213 35.233 112.643 35.903 109.623 35.903C104.283 35.903 102.123 32.173 102.123 27.253V15.603H105.393V27.243C105.353 30.883 107.253 33.243 110.573 33.243C114.053 33.243 116.493 30.923 116.493 27.193V15.593H119.723V15.603Z" fill="#232322"/>
<path d="M142.123 35.563V23.723C142.123 20.123 139.803 17.883 136.533 17.883C133.133 17.883 130.573 20.243 130.573 23.593V35.563H127.343V21.313C127.343 18.623 127.133 17.913 125.023 18.123L124.983 15.553C127.303 15.223 130.363 14.723 130.363 18.573C132.143 15.883 134.583 15.173 137.403 15.173C142.663 15.173 145.393 18.813 145.393 23.703V35.543H142.123V35.563Z" fill="#232322"/>
<path d="M155.213 9.01302C155.213 11.783 151.113 11.783 151.113 9.01302C151.113 6.28302 155.213 6.28302 155.213 9.01302ZM154.763 35.563H151.533V15.763H154.763V35.563Z" fill="#232322"/>
<path d="M159.853 25.543C159.853 11.673 180.893 11.673 180.893 25.543C180.893 39.333 159.853 39.413 159.853 25.543ZM177.663 25.543C177.663 15.393 163.123 15.393 163.123 25.543C163.123 35.733 177.663 35.733 177.663 25.543Z" fill="#232322"/>
<path d="M201.353 35.563V23.723C201.353 20.123 199.033 17.883 195.763 17.883C192.363 17.883 189.803 20.243 189.803 23.593V35.563H186.573V21.313C186.573 18.623 186.363 17.913 184.253 18.123L184.213 15.553C186.533 15.223 189.593 14.723 189.593 18.573C191.373 15.883 193.813 15.173 196.633 15.173C201.893 15.173 204.623 18.813 204.623 23.703V35.543H201.353V35.563Z" fill="#232322"/>
<path d="M3.75289 42.313C3.44289 42.313 3.15289 42.163 2.98289 41.883C2.74289 41.513 2.81289 41.023 3.13289 40.723L17.4929 27.373L8.99289 18.233C8.78289 18.013 8.70289 17.703 8.77289 17.413C8.84289 17.123 9.04289 16.873 9.32289 16.763L43.9129 2.89298C44.3229 2.73298 44.7929 2.88298 45.0229 3.25298C45.2629 3.62298 45.1929 4.11298 44.8729 4.41298L30.5229 17.763L39.0229 26.903C39.2329 27.123 39.3129 27.433 39.2429 27.723C39.1729 28.013 38.9729 28.263 38.6929 28.373L4.09289 42.243C3.98289 42.293 3.86289 42.313 3.75289 42.313ZM11.2429 17.963L19.4529 26.793C19.6229 26.973 19.7029 27.203 19.6929 27.453C19.6829 27.693 19.5829 27.923 19.4029 28.093L7.98289 38.713L36.7729 27.173L28.5629 18.343C28.3929 18.163 28.3129 17.933 28.3229 17.683C28.3329 17.443 28.4329 17.213 28.6129 17.043L40.0229 6.42298L11.2429 17.963Z" fill="#232322"/>
<path d="M38.3431 28.443L18.7831 28.343C18.4031 28.343 18.0731 28.113 17.9331 27.763C17.7931 27.413 17.8831 27.013 18.1631 26.763L26.9131 18.633L9.66309 18.533L9.67309 16.703L29.2331 16.803C29.6131 16.803 29.9431 17.033 30.0831 17.383C30.2231 17.733 30.1331 18.133 29.8531 18.383L21.1031 26.513L38.3531 26.603L38.3431 28.443Z" fill="#D07F2A"/>
<path d="M44.2531 6.57302C45.8161 6.57302 47.0831 5.30599 47.0831 3.74302C47.0831 2.18006 45.8161 0.913025 44.2531 0.913025C42.6901 0.913025 41.4231 2.18006 41.4231 3.74302C41.4231 5.30599 42.6901 6.57302 44.2531 6.57302Z" fill="white"/>
<path d="M44.2631 7.49301C44.2131 7.49301 44.1731 7.49301 44.1231 7.49301C42.0531 7.41301 40.4331 5.67301 40.5131 3.61301C40.5531 2.61301 40.9731 1.68301 41.7031 1.00301C42.4331 0.32301 43.4131 -0.0369899 44.3931 0.00301008C45.3931 0.0430101 46.3231 0.46301 47.0031 1.19301C47.6831 1.92301 48.0431 2.88301 48.0031 3.88301C47.9631 4.88301 47.5431 5.81301 46.8131 6.49301C46.1131 7.13301 45.2131 7.49301 44.2631 7.49301ZM42.3431 3.67301C42.3031 4.73301 43.1331 5.62301 44.1931 5.66301C45.2831 5.73301 46.1431 4.87301 46.1831 3.81301C46.2031 3.30301 46.0231 2.81301 45.6731 2.43301C45.3231 2.05301 44.8531 1.84301 44.3331 1.82301C43.8231 1.79301 43.3331 1.98301 42.9531 2.33301C42.5731 2.68301 42.3531 3.16301 42.3431 3.67301Z" fill="#232322"/>
<path d="M90.7528 28.493C90.7028 28.493 90.6628 28.493 90.6128 28.493C88.5428 28.413 86.9228 26.673 87.0028 24.613C87.0428 23.613 87.4628 22.683 88.1928 22.003C88.9228 21.323 89.9028 20.963 90.8828 21.003C91.8828 21.043 92.8128 21.463 93.4928 22.193C94.1728 22.923 94.5328 23.883 94.4928 24.883C94.4528 25.883 94.0328 26.813 93.3028 27.493C92.6028 28.133 91.7028 28.493 90.7528 28.493ZM88.8328 24.673C88.7928 25.733 89.6228 26.623 90.6828 26.663C91.7728 26.733 92.6328 25.873 92.6728 24.813C92.6928 24.303 92.5128 23.813 92.1628 23.433C91.8128 23.053 91.3428 22.843 90.8228 22.823C90.3128 22.793 89.8228 22.983 89.4428 23.333C89.0628 23.683 88.8428 24.163 88.8328 24.673Z" fill="#232322"/>
<path d="M18.7831 30.253C20.3461 30.253 21.6131 28.986 21.6131 27.423C21.6131 25.8601 20.3461 24.593 18.7831 24.593C17.2202 24.593 15.9531 25.8601 15.9531 27.423C15.9531 28.986 17.2202 30.253 18.7831 30.253Z" fill="white"/>
<path d="M18.7831 31.173C18.7331 31.173 18.6931 31.173 18.6431 31.173C16.5731 31.093 14.9531 29.353 15.0331 27.293C15.0731 26.293 15.4931 25.363 16.2231 24.683C16.9531 24.003 17.9431 23.643 18.9131 23.683C19.9131 23.723 20.8431 24.143 21.5231 24.873C22.2031 25.603 22.5631 26.563 22.5231 27.563C22.4531 29.583 20.7831 31.173 18.7831 31.173ZM18.7831 25.503C18.2931 25.503 17.8331 25.683 17.4831 26.013C17.1031 26.363 16.8931 26.833 16.8731 27.343C16.8331 28.403 17.6631 29.293 18.7231 29.333C18.7431 29.333 18.7731 29.333 18.7931 29.333C19.8231 29.333 20.6731 28.513 20.7131 27.483C20.7331 26.973 20.5531 26.483 20.2031 26.103C19.8531 25.723 19.3831 25.513 18.8631 25.493C18.8331 25.503 18.8031 25.503 18.7831 25.503Z" fill="#D07F2A"/>
<path d="M29.2231 20.5431C30.786 20.5431 32.0531 19.276 32.0531 17.7131C32.0531 16.1501 30.786 14.8831 29.2231 14.8831C27.6601 14.8831 26.3931 16.1501 26.3931 17.7131C26.3931 19.276 27.6601 20.5431 29.2231 20.5431Z" fill="white"/>
<path d="M29.2231 21.463C29.1731 21.463 29.1331 21.463 29.0831 21.463C27.0131 21.383 25.3931 19.643 25.4731 17.583C25.5131 16.583 25.9331 15.653 26.6631 14.973C27.3931 14.293 28.3731 13.943 29.3531 13.973C30.3531 14.013 31.2831 14.433 31.9631 15.163C32.6431 15.893 33.0031 16.853 32.9631 17.853C32.8931 19.873 31.2331 21.463 29.2231 21.463ZM29.2231 15.793C28.7331 15.793 28.2731 15.973 27.9231 16.303C27.5431 16.653 27.3331 17.123 27.3131 17.633C27.2731 18.693 28.1031 19.583 29.1631 19.623C30.2531 19.673 31.1131 18.833 31.1531 17.773C31.1731 17.263 30.9931 16.773 30.6431 16.393C30.2931 16.013 29.8231 15.803 29.3031 15.783C29.2731 15.793 29.2431 15.793 29.2231 15.793Z" fill="#D07F2A"/>
<path d="M3.7531 44.223C5.31606 44.223 6.5831 42.956 6.5831 41.393C6.5831 39.83 5.31606 38.563 3.7531 38.563C2.19013 38.563 0.923096 39.83 0.923096 41.393C0.923096 42.956 2.19013 44.223 3.7531 44.223Z" fill="white"/>
<path d="M3.75301 45.143C3.70301 45.143 3.66301 45.143 3.61301 45.143C2.61301 45.103 1.68301 44.683 1.00301 43.953C0.32301 43.223 -0.0369899 42.263 0.00301008 41.263C0.0830101 39.193 1.83301 37.593 3.88301 37.653C5.95301 37.733 7.57301 39.473 7.49301 41.533C7.42301 43.553 5.75301 45.143 3.75301 45.143ZM3.75301 39.473C2.72301 39.473 1.87301 40.293 1.83301 41.323C1.81301 41.833 1.99301 42.323 2.34301 42.703C2.69301 43.073 3.16301 43.293 3.67301 43.313C4.72301 43.373 5.62301 42.523 5.66301 41.463C5.68301 40.953 5.50301 40.463 5.15301 40.083C4.80301 39.703 4.33301 39.493 3.81301 39.473C3.79301 39.473 3.77301 39.473 3.75301 39.473Z" fill="#232322"/>
<path d="M38.3429 30.3531C39.9059 30.3531 41.1729 29.086 41.1729 27.5231C41.1729 25.9601 39.9059 24.6931 38.3429 24.6931C36.78 24.6931 35.5129 25.9601 35.5129 27.5231C35.5129 29.086 36.78 30.3531 38.3429 30.3531Z" fill="white"/>
<path d="M38.3429 31.273C38.2929 31.273 38.2529 31.273 38.2029 31.273C36.1329 31.193 34.5129 29.453 34.5929 27.393C34.6329 26.393 35.0529 25.463 35.7829 24.783C36.5129 24.103 37.5029 23.743 38.4729 23.783C39.4729 23.823 40.4029 24.243 41.0829 24.973C41.7629 25.703 42.1229 26.663 42.0829 27.663C42.0229 29.683 40.3529 31.273 38.3429 31.273ZM38.2729 29.443C39.3229 29.493 40.2229 28.653 40.2629 27.593C40.2829 27.083 40.1029 26.593 39.7529 26.213C39.4029 25.833 38.9329 25.623 38.4229 25.603C37.8929 25.583 37.4229 25.763 37.0429 26.113C36.6729 26.463 36.4529 26.933 36.4329 27.443C36.3929 28.513 37.2229 29.403 38.2729 29.443Z" fill="#D07F2A"/>
<path d="M9.66301 20.443C11.226 20.443 12.493 19.1759 12.493 17.613C12.493 16.05 11.226 14.783 9.66301 14.783C8.10004 14.783 6.83301 16.05 6.83301 17.613C6.83301 19.1759 8.10004 20.443 9.66301 20.443Z" fill="white"/>
<path d="M9.66292 21.363C9.61292 21.363 9.57292 21.363 9.52292 21.363C8.52292 21.323 7.59292 20.903 6.91292 20.173C6.23292 19.443 5.87292 18.483 5.91292 17.483C5.99292 15.413 7.75292 13.803 9.79292 13.873C10.7929 13.913 11.7229 14.333 12.4029 15.063C13.0829 15.793 13.4429 16.753 13.4029 17.753C13.3329 19.773 11.6729 21.363 9.66292 21.363ZM9.59292 19.533C10.6629 19.563 11.5429 18.743 11.5829 17.683C11.6029 17.173 11.4229 16.683 11.0729 16.303C10.7229 15.923 10.2529 15.713 9.74292 15.693C8.71292 15.673 7.79292 16.483 7.75292 17.543C7.70292 18.603 8.53292 19.493 9.59292 19.533Z" fill="#D07F2A"/>
<circle cx="90.5" cy="24.5" r="2.5" fill="#232322"/>
</svg>

<svg width="205" height="46" fill="none" xmlns="http://www.w3.org/2000/svg"><path d="M80.32 16.053l-11.14 16.65h11.05v2.86H64v-.41l11.31-16.73H64.62v-2.82h15.7v.45zm39.403-.45v14.62c0 2.94.29 3.35 2.36 3.15l.04 2.24c-3.11.54-5.59.33-5.38-3.15-1.53 2.77-4.1 3.44-7.12 3.44-5.34 0-7.5-3.73-7.5-8.65v-11.65h3.27v11.64c-.04 3.64 1.86 6 5.18 6 3.48 0 5.92-2.32 5.92-6.05v-11.6h3.23v.01zm22.4 19.96v-11.84c0-3.6-2.32-5.84-5.59-5.84-3.4 0-5.96 2.36-5.96 5.71v11.97h-3.23v-14.25c0-2.69-.21-3.4-2.32-3.19l-.04-2.57c2.32-.33 5.38-.83 5.38 3.02 1.78-2.69 4.22-3.4 7.04-3.4 5.26 0 7.99 3.64 7.99 8.53v11.84h-3.27v.02zm13.09-26.55c0 2.77-4.1 2.77-4.1 0 0-2.73 4.1-2.73 4.1 0zm-.45 26.55h-3.23v-19.8h3.23v19.8zm5.09-10.02c0-13.87 21.04-13.87 21.04 0 0 13.79-21.04 13.87-21.04 0zm17.81 0c0-10.15-14.54-10.15-14.54 0 0 10.19 14.54 10.19 14.54 0zm23.69 10.02v-11.84c0-3.6-2.32-5.84-5.59-5.84-3.4 0-5.96 2.36-5.96 5.71v11.97h-3.23v-14.25c0-2.69-.21-3.4-2.32-3.19l-.04-2.57c2.32-.33 5.38-.83 5.38 3.02 1.78-2.69 4.22-3.4 7.04-3.4 5.26 0 7.99 3.64 7.99 8.53v11.84h-3.27v.02zm-197.6 6.75c-.31 0-.6-.15-.77-.43a.914.914 0 01.15-1.16l14.36-13.35-8.5-9.14a.887.887 0 01-.22-.82c.07-.29.27-.54.55-.65l34.59-13.87a.916.916 0 01.96 1.52l-14.35 13.35 8.5 9.14c.21.22.29.53.22.82-.07.29-.27.54-.55.65l-34.6 13.87c-.11.05-.23.07-.34.07zm7.49-24.35l8.21 8.83c.17.18.25.41.24.66a.93.93 0 01-.29.64l-11.42 10.62 28.79-11.54-8.21-8.83a.888.888 0 01-.24-.66.93.93 0 01.29-.64l11.41-10.62-28.78 11.54z" fill="#232322"/><path d="M38.343 28.443l-19.56-.1c-.38 0-.71-.23-.85-.58a.894.894 0 01.23-1l8.75-8.13-17.25-.1.01-1.83 19.56.1c.38 0 .71.23.85.58s.05.75-.23 1l-8.75 8.13 17.25.09-.01 1.84z" fill="#D07F2A"/><path d="M44.253 6.573a2.83 2.83 0 100-5.66 2.83 2.83 0 000 5.66z" fill="#fff"/><path d="M44.263 7.493h-.14c-2.07-.08-3.69-1.82-3.61-3.88.04-1 .46-1.93 1.19-2.61.73-.68 1.71-1.04 2.69-1 1 .04 1.93.46 2.61 1.19.68.73 1.04 1.69 1 2.69-.04 1-.46 1.93-1.19 2.61-.7.64-1.6 1-2.55 1zm-1.92-3.82c-.04 1.06.79 1.95 1.85 1.99 1.09.07 1.95-.79 1.99-1.85a1.913 1.913 0 00-1.85-1.99c-.51-.03-1 .16-1.38.51-.38.35-.6.83-.61 1.34zm48.41 24.82h-.14c-2.07-.08-3.69-1.82-3.61-3.88.04-1 .46-1.93 1.19-2.61.73-.68 1.71-1.04 2.69-1 1 .04 1.93.46 2.61 1.19.68.73 1.04 1.69 1 2.69-.04 1-.46 1.93-1.19 2.61-.7.64-1.6 1-2.55 1zm-1.92-3.82c-.04 1.06.79 1.95 1.85 1.99 1.09.07 1.95-.79 1.99-1.85a1.913 1.913 0 00-1.85-1.99c-.51-.03-1 .16-1.38.51-.38.35-.6.83-.61 1.34z" fill="#232322"/><path d="M18.783 30.253a2.83 2.83 0 100-5.66 2.83 2.83 0 000 5.66z" fill="#fff"/><path d="M18.783 31.173h-.14c-2.07-.08-3.69-1.82-3.61-3.88.04-1 .46-1.93 1.19-2.61.73-.68 1.72-1.04 2.69-1 1 .04 1.93.46 2.61 1.19.68.73 1.04 1.69 1 2.69a3.748 3.748 0 01-3.74 3.61zm0-5.67c-.49 0-.95.18-1.3.51-.38.35-.59.82-.61 1.33-.04 1.06.79 1.95 1.85 1.99h.07c1.03 0 1.88-.82 1.92-1.85a1.913 1.913 0 00-1.85-1.99c-.03.01-.06.01-.08.01z" fill="#D07F2A"/><path d="M29.223 20.543a2.83 2.83 0 100-5.66 2.83 2.83 0 000 5.66z" fill="#fff"/><path d="M29.223 21.463h-.14c-2.07-.08-3.69-1.82-3.61-3.88.04-1 .46-1.93 1.19-2.61.73-.68 1.71-1.03 2.69-1 1 .04 1.93.46 2.61 1.19.68.73 1.04 1.69 1 2.69a3.741 3.741 0 01-3.74 3.61zm0-5.67c-.49 0-.95.18-1.3.51-.38.35-.59.82-.61 1.33-.04 1.06.79 1.95 1.85 1.99 1.09.05 1.95-.79 1.99-1.85a1.913 1.913 0 00-1.85-1.99c-.03.01-.06.01-.08.01z" fill="#D07F2A"/><path d="M3.753 44.223a2.83 2.83 0 100-5.66 2.83 2.83 0 000 5.66z" fill="#fff"/><path d="M3.753 45.143h-.14c-1-.04-1.93-.46-2.61-1.19a3.714 3.714 0 01-1-2.69c.08-2.07 1.83-3.67 3.88-3.61 2.07.08 3.69 1.82 3.61 3.88a3.748 3.748 0 01-3.74 3.61zm0-5.67c-1.03 0-1.88.82-1.92 1.85a1.913 1.913 0 001.84 1.99c1.05.06 1.95-.79 1.99-1.85a1.913 1.913 0 00-1.85-1.99h-.06z" fill="#232322"/><path d="M38.343 30.353a2.83 2.83 0 100-5.66 2.83 2.83 0 000 5.66z" fill="#fff"/><path d="M38.343 31.273h-.14c-2.07-.08-3.69-1.82-3.61-3.88.04-1 .46-1.93 1.19-2.61.73-.68 1.72-1.04 2.69-1 1 .04 1.93.46 2.61 1.19.68.73 1.04 1.69 1 2.69-.06 2.02-1.73 3.61-3.74 3.61zm-.07-1.83c1.05.05 1.95-.79 1.99-1.85a1.913 1.913 0 00-1.84-1.99c-.53-.02-1 .16-1.38.51a1.923 1.923 0 001.23 3.33z" fill="#D07F2A"/><path d="M9.663 20.443a2.83 2.83 0 100-5.66 2.83 2.83 0 000 5.66z" fill="#fff"/><path d="M9.663 21.363h-.14c-1-.04-1.93-.46-2.61-1.19a3.714 3.714 0 01-1-2.69 3.77 3.77 0 013.88-3.61c1 .04 1.93.46 2.61 1.19.68.73 1.04 1.69 1 2.69a3.74 3.74 0 01-3.74 3.61zm-.07-1.83a1.922 1.922 0 001.48-3.23c-.35-.38-.82-.59-1.33-.61-1.03-.02-1.95.79-1.99 1.85-.05 1.06.78 1.95 1.84 1.99z" fill="#D07F2A"/><circle cx="90.5" cy="24.5" r="2.5" fill="#232322"/></svg>
